X: 31958
T: Pearl, The
R: reel
M: 4/4
K: Dmajor
DE|:F2 E3 D|D2 dcde|f2 A3 F|A2 B2 c2|1 d2 c3 d|B2 A2 DE|
F2 E3 D|B,4 DE:|2 d c3 d2|B2 A2 DE|F2 E3 D|D3 d e2||
f2 A3 F|A2 B2 c2|d2 D3 E|F4 ED|1 D2 B2 BA|F2 E2 DE|
F2 E A3|A2 d2 e2:|2 D B2 B A2|F2 E2 DE|F2 E3 A|D4||

